X:79
T:(Danse des Paysans - concluded)
T:John Malchair's Third Collection of Tunes
%%VWML:Malchair-3619-p79
F:https://www.vwml.org/record/Malchair/3619/p79
F:www.vwml.org/topics/historic-dance-and-tune-books/Malchair
Z:Eric Conrad Mar 2020
M:3/4
L:1/8
Q:"Allegro"
% The MS omits the final rest.
K:Ddor
A2d(^cde) | f2ed^c2 | (def)d(e^c) | (df)(e^c)A2 |
A2d(^cde) | f2ed^c2 | (ded)d(e^c) | cd4z :|
|: a2_baga | fefga2 | (d^cd)f(e^c) | d(fe)^cA2 |
a2_baga | fefgf2 | d^cdfe^c | cd4x :|
T:Airs Norv\'egiens a Danser
F:https://www.vwml.org/record/Malchair/3619/p79
F:www.vwml.org/topics/historic-dance-and-tune-books/Malchair
%Z:Eric Conrad Mar 2020
M:3/8
L:1/16
K:Am
x3
|: e (3efd | (fe) (ec) (B^G) | (AB) (cd) (3efd | (fe) (ec) (B^G) | A2A, :|
|: e (3efd | fe ec ea | a^g ae (3efd | fe ec ea |
a^g ae (3efd | fe ec B^G | AB cd (3efd | fe ec B^G | A2A, :|



